X: 03
T:03. The Butterfly 
M:9/8
L:1/8
R: Slip Jig
K:Em
|:"Em"B2EG2E"D"F3|"Em"B2EG2E"Bm7" FED|"Em"B2EG2E "D"F2A|"Bm7"B2c d2B AFD:|/
|:"Em"B2de2f"Bm7"g3|"Em"B2dg2e "Bm7"dBA|"Em"B2de2f"Bm7"g2a|"Bm7"b2ag2e dBA:|/
|:"G"B3B2A"Am7"G2A|"G"B3 BAB "D"dBA|"G"B3B2A"Am7"G2A|"Bm7"B2dg2e dBA:|/


